ui/StatusQ/src/assets/img/icons/tiny/edit.svg

<svg fill="none" height="17" viewBox="0 0 16 17" width="16" xmlns="http://www.w3.org/2000/svg"><g fill="#000"><path d="m2.10105 14.0959.6974-2.7897c.03223-.1289.07287-.255.12149-.3777.06187-.1561.2616-.1862.38032-.0675l2.3388 2.3388c.11872.1187.08863.3185-.06745.3803-.12269.0487-.24886.0893-.37776.1215l-2.78964.6974c-.18309.0458-.34894-.12-.30316-.3031z"/><path d="m6.32321 11.7627c.39053.3905 1.02369.3905 1.41422 0l6.55547-6.5555c.3905-.39052.3905-1.02369 0-1.41421l-1.5858-1.58579c-.3905-.39052-1.0237-.39052-1.4142 0l-6.55547 6.55546c-.39053.39052-.39053 1.02369 0 1.41424z"/></g></svg>

<svg width="16" height="17" viewBox="0 0 16 17" fill="none" xmlns="http://www.w3.org/2000/svg">
<path d="M2.10105 14.0959L2.79845 11.3062C2.83068 11.1773 2.87132 11.0512 2.91994 10.9285C2.98181 10.7724 3.18154 10.7423 3.30026 10.861L5.63906 13.1998C5.75778 13.3185 5.72769 13.5183 5.57161 13.5801C5.44892 13.6288 5.32275 13.6694 5.19385 13.7016L2.40421 14.399C2.22112 14.4448 2.05527 14.279 2.10105 14.0959Z" fill="black"/>
<path d="M6.32321 11.7627C6.71374 12.1532 7.3469 12.1532 7.73743 11.7627L14.2929 5.2072C14.6834 4.81668 14.6834 4.18351 14.2929 3.79299L12.7071 2.2072C12.3166 1.81668 11.6834 1.81668 11.2929 2.2072L4.73743 8.76266C4.3469 9.15318 4.3469 9.78635 4.73743 10.1769L6.32321 11.7627Z" fill="black"/>
</svg>
